Numix/16/status/indicator-keyboard-Zh-2.svg

<?xml version="1.0" encoding="UTF-8" standalone="no"?>
<svg
   xmlns:dc="http://purl.org/dc/elements/1.1/"
   xmlns:cc="http://creativecommons.org/ns#"
   xmlns:rdf="http://www.w3.org/1999/02/22-rdf-syntax-ns#"
   xmlns:svg="http://www.w3.org/2000/svg"
   xmlns="http://www.w3.org/2000/svg"
   xmlns:sodipodi="http://sodipodi.sourceforge.net/DTD/sodipodi-0.dtd"
   xmlns:inkscape="http://www.inkscape.org/namespaces/inkscape"
   viewBox="0 0 16 16"
   id="svg2"
   version="1.1"
   inkscape:version="0.91 r13725"
   sodipodi:docname="indicator-keyboard-Zh-2.svg">
  <metadata
     id="metadata14">
    <rdf:RDF>
      <cc:Work
         rdf:about="">
        <dc:format>image/svg+xml</dc:format>
        <dc:type
           rdf:resource="http://purl.org/dc/dcmitype/StillImage" />
      </cc:Work>
    </rdf:RDF>
  </metadata>
  <defs
     id="defs12" />
  <sodipodi:namedview
     pagecolor="#ffffff"
     bordercolor="#666666"
     borderopacity="1"
     objecttolerance="10"
     gridtolerance="10"
     guidetolerance="10"
     inkscape:pageopacity="0"
     inkscape:pageshadow="2"
     inkscape:window-width="640"
     inkscape:window-height="480"
     id="namedview10"
     showgrid="false"
     inkscape:zoom="14.75"
     inkscape:cx="8"
     inkscape:cy="8"
     inkscape:window-x="65"
     inkscape:window-y="24"
     inkscape:window-maximized="0"
     inkscape:current-layer="svg2" />
  <path
     style="fill:#ececec;fill-opacity:1"
     d="M 1.5996094 0 C 0.71320937 2.9605947e-16 0 0.71320937 0 1.5996094 L 0 14.400391 C 2.9605947e-16 15.286791 0.71320937 16 1.5996094 16 L 14.400391 16 C 15.286791 16 16 15.286791 16 14.400391 L 16 1.5996094 C 16 0.71320937 15.286791 0 14.400391 0 L 1.5996094 0 z M 7.7480469 4.1113281 L 7.7480469 6.578125 C 7.9400469 6.506125 8.1359844 6.4520156 8.3339844 6.4160156 C 8.5319844 6.3740156 8.7297344 6.3535156 8.9277344 6.3535156 C 9.2877344 6.3535156 9.588125 6.4038594 9.828125 6.5058594 C 10.068125 6.6078594 10.260297 6.7552656 10.404297 6.9472656 C 10.548297 7.1332656 10.647172 7.3570938 10.701172 7.6210938 C 10.761172 7.8850937 10.791016 8.1761406 10.791016 8.4941406 L 10.791016 11.095703 L 10.205078 11.095703 L 10.205078 8.6835938 C 10.205078 8.3535938 10.182766 8.0756562 10.134766 7.8476562 C 10.092766 7.6196562 10.016203 7.4330625 9.9082031 7.2890625 C 9.8062031 7.1450625 9.6681406 7.0424219 9.4941406 6.9824219 C 9.3201406 6.9164219 9.1018906 6.8847656 8.8378906 6.8847656 C 8.7358906 6.8847656 8.6239063 6.8921562 8.5039062 6.9101562 C 8.3899062 6.9281563 8.2836406 6.9506094 8.1816406 6.9746094 C 8.0796406 6.9926094 7.9863437 7.0131094 7.9023438 7.0371094 C 7.8243437 7.0611094 7.7720469 7.0797969 7.7480469 7.0917969 L 7.7480469 11.095703 L 7.1640625 11.095703 L 7.1640625 4.2207031 L 7.7480469 4.1113281 z M 1.8574219 4.859375 L 5.9355469 4.859375 L 5.9355469 5.4179688 C 5.7915469 5.5859688 5.6236406 5.7892969 5.4316406 6.0292969 C 5.2456406 6.2692969 5.044125 6.5323125 4.828125 6.8203125 C 4.612125 7.1023125 4.3901094 7.4064687 4.1621094 7.7304688 C 3.9401094 8.0484688 3.7180938 8.3711719 3.4960938 8.7011719 C 3.2800938 9.0251719 3.073 9.3460625 2.875 9.6640625 C 2.683 9.9820627 2.5095156 10.282453 2.3535156 10.564453 L 6.0253906 10.564453 L 6.0253906 11.095703 L 1.6875 11.095703 L 1.6875 10.636719 C 1.8195 10.378719 1.9742969 10.097016 2.1542969 9.7910156 C 2.3402969 9.4790156 2.5380469 9.1618906 2.7480469 8.8378906 C 2.9580469 8.5078906 3.17825 8.1776562 3.40625 7.8476562 C 3.63425 7.5176562 3.8580781 7.2023438 4.0800781 6.9023438 C 4.3020781 6.5963438 4.5129375 6.3146406 4.7109375 6.0566406 C 4.9149375 5.7986406 5.1015313 5.576625 5.2695312 5.390625 L 1.8574219 5.390625 L 1.8574219 4.859375 z M 12.984375 8.7539062 C 13.378275 8.7539062 13.6761 8.851875 13.875 9.046875 C 14.0739 9.237975 14.171875 9.5044563 14.171875 9.8476562 C 14.171875 9.9997563 14.144444 10.14475 14.089844 10.28125 C 14.035244 10.41385 13.962741 10.543169 13.869141 10.667969 C 13.779441 10.792769 13.675594 10.912297 13.558594 11.029297 C 13.441594 11.146297 13.322072 11.263859 13.201172 11.380859 C 13.099772 11.478359 12.999844 11.578288 12.902344 11.679688 C 12.808744 11.777187 12.724484 11.877116 12.646484 11.978516 C 12.572384 12.076016 12.511644 12.172031 12.464844 12.269531 C 12.421944 12.363131 12.400391 12.457181 12.400391 12.550781 L 12.400391 12.5625 L 14.3125 12.5625 L 14.3125 12.896484 L 11.978516 12.896484 C 11.978516 12.888684 11.97659 12.874969 11.972656 12.855469 L 11.972656 12.755859 C 11.972656 12.572559 12.005966 12.402094 12.072266 12.246094 C 12.138566 12.086194 12.222819 11.937275 12.324219 11.796875 C 12.429519 11.656475 12.545122 11.525197 12.669922 11.404297 C 12.798622 11.283397 12.920109 11.165834 13.037109 11.052734 C 13.134609 10.959134 13.2267 10.869003 13.3125 10.783203 C 13.4022 10.693503 13.480575 10.603366 13.546875 10.509766 C 13.613175 10.416166 13.666078 10.316237 13.705078 10.210938 C 13.744078 10.105638 13.763672 9.9900344 13.763672 9.8652344 C 13.763672 9.5922344 13.689216 9.39825 13.541016 9.28125 C 13.396716 9.16035 13.212534 9.0996094 12.990234 9.0996094 C 12.865434 9.0996094 12.755703 9.1152844 12.658203 9.1464844 C 12.560703 9.1776844 12.474491 9.2149125 12.400391 9.2578125 C 12.330191 9.2968125 12.26945 9.3379594 12.21875 9.3808594 C 12.16805 9.4237594 12.130822 9.4570688 12.107422 9.4804688 L 11.908203 9.2167969 C 11.931603 9.1894969 11.97275 9.1503094 12.03125 9.0996094 C 12.09365 9.0450094 12.170066 8.9921062 12.259766 8.9414062 C 12.353366 8.8907063 12.461131 8.8476 12.582031 8.8125 C 12.702931 8.7735 12.836175 8.7539063 12.984375 8.7539062 z "
     id="path4" />
</svg>

<svg xmlns="http://www.w3.org/2000/svg" viewBox="0 0 16 16">
 <path d="m 1.6 0 c -0.886 0 -1.6 0.713 -1.6 1.6 l 0 12.801 c 0 0.886 0.713 1.6 1.6 1.6 l 12.801 0 c 0.886 0 1.6 -0.713 1.6 -1.6 l 0 -12.801 c 0 -0.886 -0.713 -1.6 -1.6 -1.6 l -12.801 0 z m 6.148 4.111 l 0 2.467 c 0.192 -0.072 0.388 -0.126 0.586 -0.162 c 0.198 -0.042 0.396 -0.063 0.594 -0.063 c 0.36 0 0.66 0.05 0.9 0.152 c 0.24 0.102 0.432 0.249 0.576 0.441 c 0.144 0.186 0.243 0.41 0.297 0.674 c 0.06 0.264 0.09 0.555 0.09 0.873 l 0 2.602 l -0.586 0 l 0 -2.412 c 0 -0.33 -0.022 -0.608 -0.07 -0.836 c -0.042 -0.228 -0.119 -0.415 -0.227 -0.559 c -0.102 -0.144 -0.24 -0.247 -0.414 -0.307 c -0.174 -0.066 -0.392 -0.098 -0.656 -0.098 c -0.102 0 -0.214 0.007 -0.334 0.025 c -0.114 0.018 -0.22 0.04 -0.322 0.064 c -0.102 0.018 -0.195 0.038 -0.279 0.063 c -0.078 0.024 -0.13 0.043 -0.154 0.055 l 0 4 l -0.584 0 l 0 -6.875 l 0.584 -0.109 z m -5.891 0.748 l 4.078 0 l 0 0.559 c -0.144 0.168 -0.312 0.371 -0.504 0.611 c -0.186 0.24 -0.388 0.503 -0.604 0.791 c -0.216 0.282 -0.438 0.586 -0.666 0.91 c -0.222 0.318 -0.444 0.641 -0.666 0.971 c -0.216 0.324 -0.423 0.645 -0.621 0.963 c -0.192 0.318 -0.365 0.618 -0.521 0.9 l 3.672 0 l 0 0.531 l -4.338 0 l 0 -0.459 c 0.132 -0.258 0.287 -0.54 0.467 -0.846 c 0.186 -0.312 0.384 -0.629 0.594 -0.953 c 0.21 -0.33 0.43 -0.66 0.658 -0.99 c 0.228 -0.33 0.452 -0.645 0.674 -0.945 c 0.222 -0.306 0.433 -0.588 0.631 -0.846 c 0.204 -0.258 0.391 -0.48 0.559 -0.666 l -3.412 0 l 0 -0.531 z m 11.127 3.895 c 0.394 0 0.692 0.098 0.891 0.293 c 0.199 0.191 0.297 0.458 0.297 0.801 c 0 0.152 -0.027 0.297 -0.082 0.434 c -0.055 0.133 -0.127 0.262 -0.221 0.387 c -0.09 0.125 -0.194 0.244 -0.311 0.361 c -0.117 0.117 -0.237 0.235 -0.357 0.352 c -0.101 0.098 -0.201 0.197 -0.299 0.299 c -0.094 0.097 -0.178 0.197 -0.256 0.299 c -0.074 0.097 -0.135 0.194 -0.182 0.291 c -0.043 0.094 -0.064 0.188 -0.064 0.281 l 0 0.012 l 1.912 0 l 0 0.334 l -2.334 0 c 0 -0.008 -0.002 -0.022 -0.006 -0.041 l 0 -0.1 c 0 -0.183 0.033 -0.354 0.1 -0.51 c 0.066 -0.16 0.151 -0.309 0.252 -0.449 c 0.105 -0.14 0.221 -0.272 0.346 -0.393 c 0.129 -0.121 0.25 -0.238 0.367 -0.352 c 0.098 -0.094 0.19 -0.184 0.275 -0.27 c 0.09 -0.09 0.168 -0.18 0.234 -0.273 c 0.066 -0.094 0.119 -0.194 0.158 -0.299 c 0.039 -0.105 0.059 -0.221 0.059 -0.346 c 0 -0.273 -0.074 -0.467 -0.223 -0.584 c -0.144 -0.121 -0.328 -0.182 -0.551 -0.182 c -0.125 0 -0.235 0.016 -0.332 0.047 c -0.098 0.031 -0.184 0.068 -0.258 0.111 c -0.07 0.039 -0.131 0.08 -0.182 0.123 c -0.051 0.043 -0.088 0.076 -0.111 0.1 l -0.199 -0.264 c 0.023 -0.027 0.065 -0.066 0.123 -0.117 c 0.062 -0.055 0.139 -0.108 0.229 -0.158 c 0.094 -0.051 0.201 -0.094 0.322 -0.129 c 0.121 -0.039 0.254 -0.059 0.402 -0.059 z" style="fill:#ececec;fill-opacity:1"/>
</svg>
